src/pages/try-online/components/file-explorer/components/file/marko.svg

<?xml version="1.0"?>
<svg xmlns="http://www.w3.org/2000/svg" xmlns:xlink="http://www.w3.org/1999/xlink" version="1.1" width="512" height="512">
    <path
        fill="#4ac0f0"
        d="M108.713 196.446l-36.146-58.963-72.567 118.507 85.368 139.502h72.258l-85.416-139.502 36.504-59.544zM243.444 137.518l-23.578 38.513 36.138 58.959 23.557-38.473-36.117-59zM85.419 116.507l85.472 139.483h72.257l-85.507-139.483h-72.223zM328.512 116.507h-72.206l85.469 139.483-85.469 139.502h72.257l85.471-139.502-85.522-139.483zM426.53 116.507h-72.26l85.472 139.483-85.472 139.502h72.259l85.471-139.502-85.47-139.483z"/>
</svg>

<svg xmlns="http://www.w3.org/2000/svg" viewBox="0 0 512 512">
  <path fill="#4ac0f0" d="m108.7 196.4-36.1-59L0 256l85.4 139.5h72.2L72.2 256l36.5-59.6zm134.7-58.9L220 176l36.1 59 23.6-38.5-36.2-59zm-158-21L171 256h72l-85.5-139.5H85.4zm243.1 0h-72.2L341.8 256l-85.5 139.5h72.3L414 256l-85.5-139.5zm98 0h-72.2L439.7 256l-85.4 139.5h72.2L512 256l-85.5-139.5z"/>
</svg>
